X:1
T: Janney Dang the Weaver
C:
R:Reel
Q: 100
K:D
M:4/4
L:1/8
|:dA A1/2A1/2A AF AB|dA A1/2A1/2A f2 ef|dB B1/2B1/2B BA Bd|AB de f2 ef|
dA A1/2A1/2A AF AB|dA A1/2A1/2A f2 ef|dB B1/2B1/2B BA Bd|AB de f2 ef|
de fd ef ge|de fd e2 dB|de fd ef ge|aA A1/2A1/2A f2 ef|
de fd ef ge|de fd e2 dB|de fd ef ge|ab ag fa ef:|
